X: 10
T: Down The Broom
R: reel
M: 4/4
L: 1/8
K: Ador
|: A2BG A2Bd | e2ed efgz | ~G2BA GABG | AcBA GEED |
(3.A.c.A GB A2Bd | e2ed efgz | afge d2ef |1 gfed BAAG :|2 gfed BAAz |
|:eaag ageg | a2 ba geef | g2gf ~g2ef | (3.g.f.e dc BG~G2 |
eaag ageg | ac'ba geef | gfge d2ef |1 gfed BAAg :|2 gfed BAAz |


Tune 514	Setting 13995

